topics/special-relativity/Latex/images/svg/rats_still.svg

<svg xmlns="http://www.w3.org/2000/svg" xml:space="preserve" width="4419" height="1649" overflow="hidden"><path fill="#BFBFBF" d="M3 0h4413v1640H3z"/><path fill="none" stroke="#7F7F7F" stroke-miterlimit="8" stroke-width="11.458" d="M4415.77 1557.5H5.5m4410.27 47H5.5m4410.27-186H5.5m4405.47 48H5.5m4412.62 47H5.5M4415.77 426.423 5.5 424.5m4410.27 47H5.5m4410.27 47H5.5m4405.47 48H5.5m4412.62 47H5.5m4412.62 47H5.5m4412.62 47H5.5m4412.62 48H5.5m4412.62 47H5.5m4412.62 47H5.5m4412.62 47H5.5m4412.62 48H5.5m4412.62 47H5.5m4412.62 47H5.5m4412.62 47H5.5m4412.62 48H5.5m4412.62 47H5.5m4412.62 47H5.5m4412.62 47H5.5m4412.62 48H5.5m4412.62 47H5.5m4410.27-1083H5.5m4405.47 47H5.5m4412.62 47H5.5m4412.62-333H5.5m4412.62 48H5.5m4412.62 47H5.5m4412.62 47H5.5m4412.62 47H5.5"/><path fill="none" stroke="#7F7F7F" stroke-miterlimit="8" stroke-width="6.875" d="M1559.5 3.5v1634.31m46-1634.31v1634.31m47-1634.31v1634.31m47-1636.31v1637.59M1746.5.5v1640.24M1793.5.5v1640.24M1839.5.5v1640.24M1886.5.5v1640.24M1933.5.5v1640.24M1980.5.5v1640.24M2027.5.5v1640.24M2074.5.5v1640.24M2120.5.5v1640.24M2167.5.5v1640.24M2214.5.5v1640.24M2261.5.5v1640.24M2308.5.5v1640.24M2354.5.5v1640.24M2401.5.5v1640.24M2448.5.5v1640.24M2495.5.5v1640.24M1418.5 3.5v1634.31m47-1636.31v1637.59M1512.5.5v1640.24M435.5 5.5v1634.31M482.5 5.5v1634.31M529.5 5.5v1634.31M576.5 3.5v1637.59M622.5 2.5v1640.24M669.5 2.5v1640.24M716.5 2.5v1640.24M763.5 2.5v1640.24M810.5 2.5v1640.24M856.5 2.5v1640.24M903.5 2.5v1640.24M950.5 2.5v1640.24M997.5 2.5v1640.24m47-1640.24v1640.24m47-1640.24v1640.24m46-1640.24v1640.24m47-1640.24v1640.24m47-1640.24v1640.24m47-1640.24v1640.24m47-1640.24v1640.24m46-1640.24v1640.24M295.5 5.5v1634.31M342.5 3.5v1637.59M388.5 2.5v1640.24M4086.5 3.5v1634.31m47-1634.31v1634.31m47-1634.31v1634.31m47-1635.31v1637.59M4274.5.5v1640.24M4320.5.5v1640.24M4367.5.5v1640.24M3946.5 3.5v1634.31m47-1635.31v1637.59M4039.5.5v1640.24M2963.5 5.5v1634.31m47-1634.31v1634.31m46-1634.31v1634.31m47-1636.31v1637.59m47-1638.59v1640.24m47-1640.24v1640.24m47-1640.24v1640.24m47-1640.24v1640.24m46-1640.24v1640.24m47-1640.24v1640.24m47-1640.24v1640.24m47-1640.24v1640.24m47-1640.24v1640.24m46-1640.24v1640.24m47-1640.24v1640.24m47-1640.24v1640.24m47-1640.24v1640.24m47-1640.24v1640.24m46-1640.24v1640.24m47-1640.24v1640.24m47-1640.24v1640.24M2822.5 5.5v1634.31m47-1636.31v1637.59m47-1638.59v1640.24M2542.5 2.5v1640.24m46-1640.24v1640.24m47-1640.24v1640.24m47-1640.24v1640.24m47-1640.24v1640.24m47-1640.24v1640.24M64.5 7.5v1634.31M111.5 7.5v1634.31M158.5 7.5v1634.31M204.5 6.5v1637.59M251.5 4.5v1640.24"/><path fill="#C55A11" d="M683.094 225.5v938.07h-17.188V225.5Zm17.187 929.47-25.781 51.57-25.781-51.57Zm-87.374 51.57V268.468h17.187v938.072Zm-17.188-929.478 25.782-51.562 25.781 51.562Z"/><path d="M1753.82 1289.09H820.468v-17.18h933.352Zm-924.758 17.19L777.5 1280.5l51.562-25.78Zm-46.562 28.63h933.35v17.18H782.5Zm924.76-17.19 51.56 25.78-51.56 25.78Z"/><path fill-rule="evenodd" d="m791.328 1465.14-61.796-11.04-18.882-14.83c-2.06-1.38-4.806-.35-5.493 2.07l-4.12 16.55c-14.762-12.41-37.077-20.69-62.139-21.73-35.018-1.03-66.259 24.49-69.349 59.68-1.029 10.69.687 20.7 4.12 29.67-19.225-12.42-31.069-38.87-35.361-52.78-4.291-13.92 11.902-30.47 9.613-30.7.057-16.33-19.054-2.48-19.912 23.8-.686 46.22 38.107 84.17 84.111 84.17h36.048c5.836 0 6.808-8.57 10.299-10.35s9.097-1.44 10.642-.34c1.545 1.09-.343 4.83-1.373 6.9 8.926 2.07 19.569 3.45 32.271 3.45h30.898c5.837 0 10.299-4.49 10.299-10.35 0-5.87-4.462-10.35-10.299-10.35h-10.299l77.245-42.09c3.089-1.72 4.806-4.83 5.149-7.93 0-6.56-5.149-12.42-11.672-13.8"/><path fill="#C55A11" fill-rule="evenodd" stroke="#0D0D0D" stroke-miterlimit="8" stroke-width="6.875" d="m431.377 1188.21-10.943 62.03-14.704 18.95c-1.368 2.06-.342 4.82 2.052 5.51l16.414 4.13c-12.311 14.82-20.518 37.22-21.544 62.37-1.026 35.14 24.279 66.5 59.16 69.6 10.601 1.03 20.518-.69 29.409-4.14-12.311 19.3-38.528 31.19-52.321 35.49-13.793 4.31-30.207-11.94-30.435-9.64-16.186-.06-2.45 19.12 23.596 19.98 45.823.69 83.439-38.25 83.439-84.42v-36.17c0-5.86-8.492-6.84-10.259-10.34s-1.424-9.13-.342-10.68c1.083-1.55 4.788.34 6.84 1.38 2.051-8.96 3.419-19.64 3.419-32.39v-31.01c0-5.86-4.445-10.34-10.259-10.34-5.813 0-10.259 4.48-10.259 10.34v10.33l-41.719-77.52c-1.71-3.1-4.788-4.83-7.865-5.17-6.498 0-12.311 5.17-13.679 11.71Z"/><path fill-rule="evenodd" d="M577.589 1281.03c5.602-12.54 29.536-35.14 55.007-35.03 22.235.09 63.901 6.19 85.571 22.49 21.67 16.29 34.775 35.11 32.599 54.42-1.733 15.33-10.648 27.25-37.6 33.96-26.023 5.76-52.776 5.49-78.71-.77-20.311-4.3-33.765-8.72-44.088-17.81-13.704-12.07-21.296-38.18-12.779-57.26"/><path fill="#939393" fill-rule="evenodd" stroke="#0D0D0D" stroke-miterlimit="8" stroke-width="10.313" d="M1896.4 1225.57c11.68 5.57 32.7 29.37 32.6 54.69-.08 22.11-5.76 63.55-20.92 85.09-15.16 21.55-32.68 34.58-50.64 32.42-14.26-1.73-25.36-10.59-31.6-37.39a184.8 184.8 0 0 1 .72-78.27c4-20.19 8.11-33.57 16.57-43.83 11.23-13.63 35.53-21.18 53.27-12.71ZM672.099 40.569c11.784 5.57 33.002 29.37 32.901 54.696-.085 22.11-5.817 63.54-21.117 85.088-15.298 21.547-32.98 34.578-51.111 32.414-14.397-1.723-25.595-10.588-31.898-37.387a183.1 183.1 0 0 1 .731-78.265c4.031-20.197 8.184-33.575 16.722-43.84C629.664 39.65 654.188 32.1 672.099 40.57Z"/></svg>

<svg xmlns="http://www.w3.org/2000/svg" xml:space="preserve" width="4419" height="1649" overflow="hidden"><path fill="#BFBFBF" d="M3 0h4413v1640H3z"/><path fill="none" stroke="#7F7F7F" stroke-miterlimit="8" stroke-width="11.458" d="M4415.77 1557.5H5.5M4415.77 1604.5H5.5M4415.77 1418.5H5.5M4410.97 1466.5H5.5M4418.12 1513.5H5.5M4415.77 426.423 5.5 424.5M4415.77 471.5H5.5M4415.77 518.5H5.5M4410.97 566.5H5.5M4418.12 613.5H5.5M4418.12 660.5H5.5M4418.12 707.5H5.5M4418.12 755.5H5.5M4418.12 802.5H5.5M4418.12 849.5H5.5M4418.12 896.5H5.5M4418.12 944.5H5.5M4418.12 991.5H5.5M4418.12 1038.5H5.5M4418.12 1085.5H5.5M4418.12 1133.5H5.5M4418.12 1180.5H5.5M4418.12 1227.5H5.5M4418.12 1274.5H5.5M4418.12 1322.5H5.5M4418.12 1369.5H5.5M4415.77 286.5H5.5M4410.97 333.5H5.5M4418.12 380.5H5.5M4418.12 47.5H5.5M4418.12 95.5H5.5M4418.12 142.5H5.5M4418.12 189.5H5.5M4418.12 236.5H5.5"/><path fill="none" stroke="#7F7F7F" stroke-miterlimit="8" stroke-width="6.875" d="M1559.5 3.5v1634.31M1605.5 3.5v1634.31M1652.5 3.5v1634.31M1699.5 1.5v1637.59M1746.5.5v1640.24M1793.5.5v1640.24M1839.5.5v1640.24M1886.5.5v1640.24M1933.5.5v1640.24M1980.5.5v1640.24M2027.5.5v1640.24M2074.5.5v1640.24M2120.5.5v1640.24M2167.5.5v1640.24M2214.5.5v1640.24M2261.5.5v1640.24M2308.5.5v1640.24M2354.5.5v1640.24M2401.5.5v1640.24M2448.5.5v1640.24M2495.5.5v1640.24M1418.5 3.5v1634.31M1465.5 1.5v1637.59M1512.5.5v1640.24M435.5 5.5v1634.31M482.5 5.5v1634.31M529.5 5.5v1634.31M576.5 3.5v1637.59M622.5 2.5v1640.24M669.5 2.5v1640.24M716.5 2.5v1640.24M763.5 2.5v1640.24M810.5 2.5v1640.24M856.5 2.5v1640.24M903.5 2.5v1640.24M950.5 2.5v1640.24M997.5 2.5v1640.24M1044.5 2.5v1640.24M1091.5 2.5v1640.24M1137.5 2.5v1640.24M1184.5 2.5v1640.24M1231.5 2.5v1640.24M1278.5 2.5v1640.24M1325.5 2.5v1640.24M1371.5 2.5v1640.24M295.5 5.5v1634.31M342.5 3.5v1637.59M388.5 2.5v1640.24M4086.5 3.5v1634.31M4133.5 3.5v1634.31M4180.5 3.5v1634.31M4227.5 2.5v1637.59M4274.5.5v1640.24M4320.5.5v1640.24M4367.5.5v1640.24M3946.5 3.5v1634.31M3993.5 2.5v1637.59M4039.5.5v1640.24M2963.5 5.5v1634.31M3010.5 5.5v1634.31M3056.5 5.5v1634.31M3103.5 3.5v1637.59M3150.5 2.5v1640.24M3197.5 2.5v1640.24M3244.5 2.5v1640.24M3291.5 2.5v1640.24M3337.5 2.5v1640.24M3384.5 2.5v1640.24M3431.5 2.5v1640.24M3478.5 2.5v1640.24M3525.5 2.5v1640.24M3571.5 2.5v1640.24M3618.5 2.5v1640.24M3665.5 2.5v1640.24M3712.5 2.5v1640.24M3759.5 2.5v1640.24M3805.5 2.5v1640.24M3852.5 2.5v1640.24M3899.5 2.5v1640.24M2822.5 5.5v1634.31M2869.5 3.5v1637.59M2916.5 2.5v1640.24M2542.5 2.5v1640.24M2588.5 2.5v1640.24M2635.5 2.5v1640.24M2682.5 2.5v1640.24M2729.5 2.5v1640.24M2776.5 2.5v1640.24M64.5 7.5v1634.31M111.5 7.5v1634.31M158.5 7.5v1634.31M204.5 6.5v1637.59M251.5 4.5v1640.24"/><path fill="#C55A11" d="M683.094 225.5v938.07h-17.188V225.5Zm17.187 929.47-25.781 51.57-25.781-51.57ZM612.907 1206.54V268.468h17.187v938.072Zm-17.188-929.478 25.782-51.562 25.781 51.562Z"/><path d="M1753.82 1289.09H820.468v-17.18h933.352Zm-924.758 17.19L777.5 1280.5l51.562-25.78ZM782.5 1334.91h933.35v17.18H782.5Zm924.76-17.19 51.56 25.78-51.56 25.78Z"/><path fill-rule="evenodd" d="m791.328 1465.14-61.796-11.04-18.882-14.83c-2.06-1.38-4.806-.35-5.493 2.07l-4.12 16.55c-14.762-12.41-37.077-20.69-62.139-21.73-35.018-1.03-66.259 24.49-69.349 59.68-1.029 10.69.687 20.7 4.12 29.67-19.225-12.42-31.069-38.87-35.361-52.78-4.291-13.92 11.902-30.47 9.613-30.7.057-16.33-19.054-2.48-19.912 23.8-.686 46.22 38.107 84.17 84.111 84.17h36.048c5.836 0 6.808-8.57 10.299-10.35s9.097-1.44 10.642-.34c1.545 1.09-.343 4.83-1.373 6.9 8.926 2.07 19.569 3.45 32.271 3.45h30.898c5.837 0 10.299-4.49 10.299-10.35 0-5.87-4.462-10.35-10.299-10.35h-10.299l77.245-42.09c3.089-1.72 4.806-4.83 5.149-7.93 0-6.56-5.149-12.42-11.672-13.8"/><path fill="#C55A11" fill-rule="evenodd" stroke="#0D0D0D" stroke-miterlimit="8" stroke-width="6.875" d="m431.377 1188.21-10.943 62.03-14.704 18.95c-1.368 2.06-.342 4.82 2.052 5.51l16.414 4.13c-12.311 14.82-20.518 37.22-21.544 62.37-1.026 35.14 24.279 66.5 59.16 69.6 10.601 1.03 20.518-.69 29.409-4.14-12.311 19.3-38.528 31.19-52.321 35.49-13.793 4.31-30.207-11.94-30.435-9.64-16.186-.06-2.45 19.12 23.596 19.98 45.823.69 83.439-38.25 83.439-84.42v-36.17c0-5.86-8.492-6.84-10.259-10.34s-1.424-9.13-.342-10.68c1.083-1.55 4.788.34 6.84 1.38 2.051-8.96 3.419-19.64 3.419-32.39v-31.01c0-5.86-4.445-10.34-10.259-10.34-5.813 0-10.259 4.48-10.259 10.34v10.33l-41.719-77.52c-1.71-3.1-4.788-4.83-7.865-5.17-6.498 0-12.311 5.17-13.679 11.71Z"/><path fill-rule="evenodd" d="M577.589 1281.03c5.602-12.54 29.536-35.14 55.007-35.03 22.235.09 63.901 6.19 85.571 22.49 21.67 16.29 34.775 35.11 32.599 54.42-1.733 15.33-10.648 27.25-37.6 33.96-26.023 5.76-52.776 5.49-78.71-.77-20.311-4.3-33.765-8.72-44.088-17.81-13.704-12.07-21.296-38.18-12.779-57.26"/><path fill="#939393" fill-rule="evenodd" stroke="#0D0D0D" stroke-miterlimit="8" stroke-width="10.313" d="M1896.4 1225.57c11.68 5.57 32.7 29.37 32.6 54.69-.08 22.11-5.76 63.55-20.92 85.09-15.16 21.55-32.68 34.58-50.64 32.42-14.26-1.73-25.36-10.59-31.6-37.39a184.8 184.8 0 0 1 .72-78.27c4-20.19 8.11-33.57 16.57-43.83 11.23-13.63 35.53-21.18 53.27-12.71ZM672.099 40.569c11.784 5.57 33.002 29.37 32.901 54.696-.085 22.11-5.817 63.54-21.117 85.088-15.298 21.547-32.98 34.578-51.111 32.414-14.397-1.723-25.595-10.588-31.898-37.387a183.1 183.1 0 0 1 .731-78.265c4.031-20.197 8.184-33.575 16.722-43.84C629.664 39.65 654.188 32.1 672.099 40.57Z"/></svg>
